symbols/it/main-1v-AVV.svg

<?xml version="1.0" encoding="UTF-8" standalone="no"?>
<svg
   width="15"
   height="16.87657"
   viewBox="0 0 15 16.876569"
   version="1.1"
   id="svg1994"
   sodipodi:docname="main-1v-AVV.svg"
   inkscape:version="1.2.2 (b0a8486541, 2022-12-01)"
   xmlns:inkscape="http://www.inkscape.org/namespaces/inkscape"
   xmlns:sodipodi="http://sodipodi.sourceforge.net/DTD/sodipodi-0.dtd"
   xmlns="http://www.w3.org/2000/svg"
   xmlns:svg="http://www.w3.org/2000/svg">
  <defs
     id="defs1998" />
  <sodipodi:namedview
     id="namedview1996"
     pagecolor="#ffffff"
     bordercolor="#666666"
     borderopacity="1.0"
     inkscape:showpageshadow="2"
     inkscape:pageopacity="0.0"
     inkscape:pagecheckerboard="0"
     inkscape:deskcolor="#d1d1d1"
     showgrid="false"
     inkscape:zoom="63.157777"
     inkscape:cx="6.1433447"
     inkscape:cy="12.31044"
     inkscape:window-width="1920"
     inkscape:window-height="1128"
     inkscape:window-x="0"
     inkscape:window-y="0"
     inkscape:window-maximized="1"
     inkscape:current-layer="svg1994" />
  <path
     fill-rule="nonzero"
     fill="#000000"
     fill-opacity="1"
     stroke-width="0.217304"
     stroke-linecap="butt"
     stroke-linejoin="miter"
     stroke="#ffffff"
     stroke-opacity="1"
     stroke-miterlimit="4"
     d="m 11.890624,4.4524007 c 0,2.4023427 -1.9687493,4.3476551 -4.386718,4.3476551 -2.4296861,0 -4.3945297,-1.9453124 -4.3945297,-4.3476551 0,-2.3984364 1.9648436,-4.3437487 4.3945297,-4.3437487 2.4179687,0 4.386718,1.9453123 4.386718,4.3437487 z m 0,0"
     id="path1990" />
  <path
     fill-rule="nonzero"
     fill="#ff0000"
     fill-opacity="1"
     d="m 9.2500015,4.4563082 c 0,0.960938 -0.785156,1.746094 -1.75,1.746094 -0.964844,0 -1.75,-0.785156 -1.75,-1.746094 0,-0.96875 0.785156,-1.75 1.75,-1.75 0.964844,0 1.75,0.78125 1.75,1.75 z m 0,0"
     id="path1992" />
  <path
     fill-rule="nonzero"
     fill="#000000"
     fill-opacity="1"
     d="M 15,13.165633 C 15,15.216414 13.320312,16.87657 11.253906,16.87657 9.179688,16.87657 7.5,15.216414 7.5,13.165633 7.5,11.114851 9.179688,9.454695 11.253906,9.454695 13.320312,9.454695 15,11.114851 15,13.165633 Z m 0,0"
     id="path2" />
  <path
     fill-rule="nonzero"
     fill="#54bfff"
     fill-opacity="1"
     d="m 13.835938,13.169539 c 0,1.421875 -1.160157,2.582031 -2.585938,2.582031 -1.425781,0 -2.585938,-1.160156 -2.585938,-2.582031 0,-1.433594 1.160157,-2.585938 2.585938,-2.585938 1.425781,0 2.585938,1.152344 2.585938,2.585938 z m 0,0"
     id="path4" />
  <path
     fill-rule="nonzero"
     fill="#000000"
     fill-opacity="1"
     d="M 7.5,13.165633 C 7.5,15.216414 5.820312,16.87657 3.753906,16.87657 1.679688,16.87657 0,15.216414 0,13.165633 0,11.114851 1.679688,9.454695 3.753906,9.454695 5.820312,9.454695 7.5,11.114851 7.5,13.165633 Z m 0,0"
     id="path6" />
  <path
     fill-rule="nonzero"
     fill="#54bfff"
     fill-opacity="1"
     d="m 6.335938,13.169539 c 0,1.421875 -1.160157,2.582031 -2.585938,2.582031 -1.425781,0 -2.585938,-1.160156 -2.585938,-2.582031 0,-1.433594 1.160157,-2.585938 2.585938,-2.585938 1.425781,0 2.585938,1.152344 2.585938,2.585938 z m 0,0"
     id="path8" />
</svg>

<?xml version="1.0" encoding="UTF-8"?>
<svg xmlns="http://www.w3.org/2000/svg" xmlns:xlink="http://www.w3.org/1999/xlink" width="15" height="16.87657" viewBox="0 0 15 16.87657">
<path fill-rule="nonzero" fill="rgb(0%, 0%, 0%)" fill-opacity="1" stroke-width="0.217304" stroke-linecap="butt" stroke-linejoin="miter" stroke="rgb(100%, 100%, 100%)" stroke-opacity="1" stroke-miterlimit="4" d="M 11.890625 4.453125 C 11.890625 6.855469 9.921875 8.800781 7.503906 8.800781 C 5.074219 8.800781 3.109375 6.855469 3.109375 4.453125 C 3.109375 2.054688 5.074219 0.109375 7.503906 0.109375 C 9.921875 0.109375 11.890625 2.054688 11.890625 4.453125 Z M 11.890625 4.453125 "/>
<path fill-rule="nonzero" fill="rgb(100%, 0%, 0%)" fill-opacity="1" d="M 9.25 4.457031 C 9.25 5.417969 8.464844 6.203125 7.5 6.203125 C 6.535156 6.203125 5.75 5.417969 5.75 4.457031 C 5.75 3.488281 6.535156 2.707031 7.5 2.707031 C 8.464844 2.707031 9.25 3.488281 9.25 4.457031 Z M 9.25 4.457031 "/>
<path fill-rule="nonzero" fill="rgb(0%, 0%, 0%)" fill-opacity="1" d="M 15 13.164062 C 15 15.214844 13.320312 16.875 11.253906 16.875 C 9.179688 16.875 7.5 15.214844 7.5 13.164062 C 7.5 11.113281 9.179688 9.453125 11.253906 9.453125 C 13.320312 9.453125 15 11.113281 15 13.164062 Z M 15 13.164062 "/>
<path fill-rule="nonzero" fill="rgb(32.941176%, 74.901961%, 100%)" fill-opacity="1" d="M 13.835938 13.167969 C 13.835938 14.589844 12.675781 15.75 11.25 15.75 C 9.824219 15.75 8.664062 14.589844 8.664062 13.167969 C 8.664062 11.734375 9.824219 10.582031 11.25 10.582031 C 12.675781 10.582031 13.835938 11.734375 13.835938 13.167969 Z M 13.835938 13.167969 "/>
<path fill-rule="nonzero" fill="rgb(0%, 0%, 0%)" fill-opacity="1" d="M 7.5 13.164062 C 7.5 15.214844 5.820312 16.875 3.753906 16.875 C 1.679688 16.875 0 15.214844 0 13.164062 C 0 11.113281 1.679688 9.453125 3.753906 9.453125 C 5.820312 9.453125 7.5 11.113281 7.5 13.164062 Z M 7.5 13.164062 "/>
<path fill-rule="nonzero" fill="rgb(32.941176%, 74.901961%, 100%)" fill-opacity="1" d="M 6.335938 13.167969 C 6.335938 14.589844 5.175781 15.75 3.75 15.75 C 2.324219 15.75 1.164062 14.589844 1.164062 13.167969 C 1.164062 11.734375 2.324219 10.582031 3.75 10.582031 C 5.175781 10.582031 6.335938 11.734375 6.335938 13.167969 Z M 6.335938 13.167969 "/>
</svg>
